X: 205
T: Thy Fair Bosom
B: O'Neill's 205
N: "With feeling"
Z: 1997 by John Chambers <jc@trillian.mit.edu>
M: 3/4
L: 1/8
K:G
(de/f/) \
| g>g g2 (ga/b/) | (a>f) (e2 dc) | (B>c) (d2 cA) | B>B B2 d2 |
| g>g g2 (ga/b/) | a>f e2 (d>c) | (B>c) d2 cA | G>G G2 ||
|| Bd \
| c2 zA A>c | e4 (dc) | (B>d g2) (f>g) | (a>f) Hg2 (d>c) |
| (B>d g2) (ga/b/) | (a>f) e2 (d>c) | (B>c) Hd2 cA | G>G G2 ||


